X: 278
T: O Arranmore Loved Arranmore
B: O'Neill's 278
N: "Moderate"
Z: 1997 by John Chambers <jc@trillian.mit.edu>
M: C
L: 1/8
K:Dm
A \
| d>efe dAA>F | G>GGA c3A | d>efe dAA>F | G>FDD D3 ||
| c \
| c/c/A F>G A>BAF | c>AF>A c3A | d>efe dAA>F | G>FDD D3 ||


